!!!OTL: Die zwei armen Waislein Es bar ainmol zboai urmai Boaishlain.
!!!ARE: Europa, Suedosteuropa, Jugoslavija, Gottschee, Verdreng
!!!YOR: 5, S. 307
!!    1906 aufgezeichnet
!!!SCT: Q0117B
!!!YEM: Copyright 1995, estate of Helmut Schaffrath.
**kern
*ICvox
*Ivox
*M3/4
*k[f#]
*G:
{4b
=1
2b
8a
8b
=2
2cc
4dd
=3
4ee
4ee
4dd
=4
2b}
{8cc
8ee
=5
2dd
4cc
=6
2b
8b
8b
=7
4cc
4b}
{8cc
8ee
=8
2dd
4cc
=9
2b
8b
8b
=10
4cc
4b}
==
!!!AGN: Ballade, Waise, boese Stiefmutter, Klage am Grab, Geist
!! Verselbstaendigte Oberstimme? Zweite und dritte Zeile = Refrain.
!!!ONB: ESAC (Essen Associative Code) Database: BALLADE
!!!AMT: simple triple
!!!AIN: vox
!!!EED: Helmut Schaffrath
!!!EEV: 1.0
*-
